X:1
T: The Good Folks at Bethany
C:Bruce Shawyer
R:Jig
Q:180
K:D
M:6/8
L:1/16
|:G2|F4A2 A2B2A2|d4A2 A2B2A2|B2c2d2 e4d2|c2B2A2 G2F2E2|
F4A2 A2B2A2|d4A2 A2B2A2|B2c2d2 e2d2c2|d6 d4:|
|:g2|f4d2 d2e2f2|g4e2 c2B2A2|f4d2 d2e2f2|e4c2 A6|
f4d2 d2e2f2|e4c2 A4A2|B2c2d2 e2d2c2|d6 d4:|
